X:159
T: Anyám, édesanyám...
M: 2/4
L: 1/4
K: Bb
f/f/g/f/ | e<d | 
f/e/d/c/ | c<B | 
c/d/e/d/ | c<B | 
d/c/B/_A/ | G<G |

